X:1
T:Title
%%score { ( 1 4 ) | ( 2 3 ) }
L:1/8
M:4/4
K:Bb
V:1 treble nm="Grand Piano"
V:4 treble 
V:2 bass 
V:3 bass 
V:1
 z4 z2[Q:1/4=100] FF | [DB][DB][DB][DB] [DB]d[Ec][DB] | A2 G2 G2 BG | %3
 [EG][DF][DF][DF] [FB][FB][EA][DB] | z4 c2 z2 | [DB][DB][DB][DB] [DB]d[Ec][DB] | A2 G2 G2 BG | %7
 GFFF GFGA |[M:3/4] c4 [B,DB]2 |[M:1/4] BB |[M:4/4] [Ge][Ge][Ge][Ge] [Ge]2 [GB][EG] | %11
 [EG][DF][DF][B,D] [DF]4 | [FB][FB][FB][FB] [FB]2 [EA]B |[M:9/8] c2 d- d c2- cdc | %14
[M:4/4] [DB]2 [EB]2 [DB]3 [DF] |[M:9/8] GGG G [Ge]2- [Ge][Gd][Gc] |[M:4/4] [FB][FB]FF G2 [Gc][Gc] | %17
[M:7/8] [FB]2 [EA]2 [DB]3 |] %18
V:2
 z4 z2 F,F, | [B,,F,][B,,F,][B,,F,][B,,F,] F,[B,F][B,,B,][B,,B,] | %2
 [E,B,E]2 [E,B,E]2 [E,B,E]2 [E,G,E][E,B,E] | %3
 [B,,B,][B,,B,][B,,B,][B,,B,] [D,B,][D,B,][C,F,][B,,F,] | [F,A,F]4 .[F,A,F]2 [D,B,][C,F,] | %5
 [B,,F,][B,,F,][B,,F,][B,,F,] F,[B,F][B,,B,][B,,B,] | [E,B,E]2 [E,B,E]2 [E,B,E]2 [E,G,E][D,B,E] | %7
 [F,B,E][F,B,D][F,B,D][F,B,D] [F,A,E][F,A,E][F,B,E][F,CE] |[M:3/4] [F,A,E]4 B,,2 |[M:1/4] B,B, | %10
[M:4/4] [E,B,][E,B,][E,B,][E,B,] [E,B,]2 [E,B,][E,B,] | [B,,B,][B,,B,][B,,B,][B,,F,] [B,,B,]4 | %12
 [D,B,][D,B,][D,B,][D,B,] [D,B,]2 [C,F,][D,B,D] | %13
[M:9/8] [F,A,F]2 [F,B,F]- [F,B,F] [F,A,F]2- [F,A,F][F,A,F][F,A,E] | %14
[M:4/4] [B,,B,]2 [B,,G,]2 [B,,F,]3 [B,,B,] | %15
[M:9/8] [E,B,E][E,B,E][E,B,E] [E,B,E] [E,B,]2- [E,B,][E,B,][E,B,] | %16
[M:4/4] [D,B,][D,B,][D,B,][D,B,] [E,B,E]2 [E,E][E,E] |[M:7/8] [F,D]2 [F,C]2 [B,,B,]3 |] %18
V:3
 x8 | z4 B,,2 z2 | x8 | x8 | x8 | z4 B,,2 z2 | x8 | x8 |[M:3/4] x6 |[M:1/4] x2 |[M:4/4] x8 | x8 | %12
 x8 |[M:9/8] x9 |[M:4/4] x8 |[M:9/8] x9 |[M:4/4] x8 |[M:7/8] x7 |] %18
V:4
 x8 | x8 | x8 | x8 | c4 z E,F[EF] | x8 | x8 | x8 |[M:3/4] x6 |[M:1/4] x2 |[M:4/4] x8 | x8 | x8 | %13
[M:9/8] x9 |[M:4/4] x8 |[M:9/8] x9 |[M:4/4] x8 |[M:7/8] x7 |] %18

